!!!ONB: MCCC : IWM0403_03 : Extracted Monophonic Melody
!!!COM: Mozart, Wolfgang Amadeus
!!!OPR: Piano Sonata No.3
!!!OMV: 3
!!!SCT: K.281 ; K⁶.189f
!!!ODT: 1774///
**kern
*thru
*staff1
*clefG2
*>A
*k[b-e-]
*B-:
*M2/2
*met(c|)
*MM160
4ff
4gg
=1
8ff
8ee-
8dd
8cc
4ee-
4ff
=2
8ee-
8dd
8cc
8b-
4ff
4bb-
=3
8aa
8gg
8gg
8ff
8ff
8ee-
8ee-
8dd
=4
4dd
4cc
8ff
8ee
8ff
8gg
=5
8ff
8ee-
8dd
8cc
8ee-
8dd
8ee-
8ff
=6
8ee-
8dd
8cc
8b-
8b-
8dd
8ff
8bb-
=7
8bb-
8gg
8ee-
8cc
2cc
=8
4b-
4b-
4cc
4a
=9
4b-
4d
4e-
4e
=10
4f
12dd
12ee-
12ff
12ee-
12ff
12gg
12cc
12dd
12ee-
=11
12dd
12ee-
12ff
12gg
12aa
12bb-
12aa
12gg
12ff
12ee-
12dd
12cc
=12
4b-
2.b-[
=13
4b-]
12ee-
12ff
12gg
12ff
12ee-
12dd
12cc
12b-
12a
=14
4b-
2.b-[
=15
4b-]
12ee-
12ff
12gg
12ff
12ee-
12dd
12cc
12b-
12a
=16
4b-
12ee-
12cc
12a
4b-
12ee-
12cc
12a
=17
4b-
4ff
4bb-
4r
=18
2.b-
4dd
=19
4ff
4bb-
4ddd
4r
=20
2.a
4cc
=21
4ff
4aa
4ccc
4r
=22
*tuplet
12r
12ccc
*Xtuplet
12bb-
12r
12aa
12gg
12r
12bb-
12aa
12r
12gg
12ff
=23
12r
12aa
12gg
12r
12ff
12ee
12r
12gg
12ff
12r
12a
12cc
=24
12r
12cc
12b-
12r
12a
12g
12r
12b-
12a
12r
12g
12f
=25
12r
12a
12g
12r
12f
12e
12r
12f
12a
12cc
12ff
12aa
=26
12dd
12gg
12ff#
12gg
12bb-
12aa
12bb-
12ddd
12ccc#
12ddd
12bb-
12gg
=27
4ff
4ee
2r
=28
4cc
8.ff
16a
4b-
4g
=29
4bb-
16aa
16gg
16ff
16ee
4ff
8aa
8r
=30
4cc
8.ff
16a
4b-
4g
=31
4bb-
16aa
16gg
16ff
16ee
4ff
8aa
8r
=32
*tuplet
12r
12ccc
12bb-
*Xtuplet
12aa
12aa
12gg
12ff
12ff
12ee-
12dd
12dd
12cc#
=33
8dd
8ee
8ff
8ff#
8gg
8aa
8bb-
8ddd
=34
8ddd
8ccc
8bb-
8aa
8aa
8gg
8ff
8ee
=35
*tuplet
12r
12ccc
12bb-
*Xtuplet
12aa
12aa
12gg
12ff
12ff
12ee-
12dd
12dd
12cc#
=36
8dd
8ee
8ff
8ff#
8gg
8aa
8bb-
8ccc
=37
8ddd
8eee
8fff
8eee
8fff
8eee
8fff
8eee
=38
8fff
8ddd
8bb-
8gg
2gg
=39
4ff
2.ee-
=40
4dd
2.ee
=41
4ff
2.ee-
=42
4dd
2.ee
=43
*M8/2
[2ff
8ff]
8bb-
8gg
8ee
2ff[
8ff]
8bb-
8gg
8ee
8ff
8gg
8ee-
8cc#
8dd
8ee-
8cc
8a
8b-
8cc
8dd
8ee-
4ff
4gg
=44
*met(C|)
*M2/2
8ff
8ee-
8dd
8cc
4ee-
4ff
=45
8ee-
8dd
8cc
8b-
4ff
4bb-
=46
8aa
8gg
8gg
8ff
8ff
8ee-
8ee-
8dd
=47
4dd
4cc
8ff
8ee
8ff
8gg
=48
8ff
8ee-
8dd
8cc
8ee-
8dd
8ee-
8ff
=49
8ee-
8dd
8cc
8b-
8b-
8dd
8ff
8bb-
=50
8bb-
8gg
8ee-
8cc
2cc
=51
4b-
4cc
4cc#
4dd
=52
*>B
4dd
4r
8r
8ff#
8gg
8bb-
=53
4cc
4r
8r
8b
8cc
8ee-
=54
4f#
4r
8r
8ee-
8dd
8f#
=55
8a
8g
8b-
8a
8cc
8b-
8dd
8cc
=56
8ee-
8dd
2dd
4gg
=57
8ff
8ee-
2ee-
4dd
=58
8dd
8cc#
2cc#
4ccc#
=59
4.ccc#
8ddd
4dd
4r
=60
*>B
4dd
4r
8r
8ff#
8gg
8bb-
=61
4cc
4r
8r
8b
8cc
8ee-
=62
4f#
4r
8r
8ee-
8dd
8f#
=63
8a
8g
8b-
8a
8cc
8b-
8dd
8cc
=64
8ee-
8dd
2dd
4gg
=65
8ff
8ee-
2ee-
4dd
=66
8dd
8cc#
2cc#
4ccc#
=67
4.ccc#
8ddd
4dd
4r
=68
*>C
8r
8ddd
8ccc#
8ddd
8r
8ccc
8bb
8ccc
=69
2bb-
2ff#
=70
8r
8gg
8ff#
8ff
8ee
8ee-
8dd
8cc#
=71
2cc#
4dd
4r
=72
8dd
8gg
2gg
4ff
=73
8ff
8ee-
4ee-:
4r
8r
8ee-
=74
8ee-
8dd
8r
8cc
8cc
8b-
8r
8a
=75
2a
4g
4r
=76
*>C
8r
8ddd
8ccc#
8ddd
8r
8ccc
8bb
8ccc
=77
2bb-
2ff#
=78
8r
8gg
8ff#
8ff
8ee
8ee-
8dd
8cc#
=79
2cc#
4dd
4r
=80
8dd
8gg
2gg
4ff
=81
8ff
8ee-
4ee-:
4r
8r
8ee-
=82
8ee-
8dd
8r
8cc
8cc
8b-
8r
8a
=83
2a
4g
4r
=84
*>D
2b
4cc
4r
=85
2cc#
4dd
4r
=86
4ee-:
4r
2r
=87
2r
4ff
4gg
=88
8ff
8ee-
8dd
8cc
4ee-
4ff
=89
8ee-
8dd
8cc
8b-
4ff
4bb-
=90
8aa
8gg
8gg
8ff
8ff
8ee-
8ee-
8dd
=91
4dd
4cc
8ff
8ee
8ff
8gg
=92
8ff
8ee-
8dd
8cc
8ee-
8dd
8ee-
8ff
=93
8ee-
8dd
8cc
8b-
8b-
8dd
8ff
8bb-
=94
8bb-
8gg
8ee-
8cc
2cc
=95
4b-
4b-
4cc
4a
=96
4b-
4d
4e-
4e
=97
4f
12dd
12ee-
12ff
12ee-
12ff
12gg
12cc
12dd
12ee-
=98
12dd
12ee-
12ff
12gg
12aa
12bb-
12aa
12gg
12ff
12ee-
12dd
12cc
=99
4b-
2.b-[
=100
4b-]
12ee-
12ff
12gg
12ff
12ee-
12dd
12cc
12b-
12a
=101
4b-
2.b-[
=102
4b-]
12ee-
12ff
12gg
12ff
12ee-
12dd
12cc
12b-
12a
=103
4b-
12ee-
12cc
12a
4b-
12ee-
12cc
12a
=104
4b-
4ff
4bb-
4f
=105
4a-
4r
2r
=106
2b-
8ee-
8dd
8cc
8b-
=107
4.b-
8cc
4b-
4r
=108
4r
4b-
8ee-
8dd
8cc
8b-
=109
4.b-
8cc
4b-
4r
=110
4r
4gg
4aa-
4bb-
=111
4.ccc
8bb-
4aa-
4r
=112
4r
4b-
4cc
4dd
=113
4.ee-
8ff
4gg
4r
=114
4r
4gg
4aa-
4bb-
=115
4.ccc
8bb-
4aa-
4r
=116
4r
4b-
4cc
4dd
=117
4ee-
4r
4gg
4gg
=118
*tuplet
12b
12dd
*Xtuplet
12ff
12aa-
12ff
12dd
12b
12dd
12ff
12aa-
12ff
12dd
=119
4cc
4r
4ff
4ff
=120
12a
12cc
12ee-
12gg-
12ee-
12cc
12a
12cc
12ee-
12gg-
12ee-
12cc
=121
4b-
4r
12bb-
12aa
12gg
12ff
12ee-
12dd
=122
12b
12cc
12ee-
12b
12cc
12ee-
12cc#
12dd
12ff
12cc#
12dd
12ff
=123
12dd
12ee-
12gg
12dd
12ee-
12gg
12ee
12ff
12aa-
12ee
12ff
12aa-
=124
8ff#
8gg
8dd
8ee-
8b
8cc
8ee-
8cc
=125
4b-
4a
*tuplet
12f
12a
12cc
12ff
12aa
12ccc
=126
4bb-
4r
*Xtuplet
12bb-
12gg
12ee
12cc
12b-
12g
=127
4a
4r
12f
12a
12cc
12ff
12aa
12ccc
=128
4bb-
4r
12bb-
12gg
12ee
12cc
12b-
12g
=129
16a
16cc
16b-
16a
16b-
16cc
16dd
16ee
8ff
8ff
8ff
8ff
=130
[1ff
=131
1ff_
=132
1ff_
=133
1ff]
=134
4ff
4r
2r
=135
2r
4ff
4gg
=136
8ff
8ee-
8dd
8cc
4ee-
4ff
=137
8ee-
8dd
8cc
8b-
4ff
4bb-
=138
8cc
8aa
8b-
8gg
8a
8ff
8g
8ee
=139
4ff:
4r
2r
=140
4ff
8.bb-
16dd
4ee-
4cc
=141
4eee-
16ddd
16ccc
16bb-
16aa
4bb-
8ddd
8r
=142
4ff
8.bb-
16dd
4ee-
4cc
=143
4ee-
16dd
16cc
16b-
16a
4b-
8dd
8r
=144
*tuplet
12r
12ff
12ee-
*Xtuplet
12dd
12dd
12cc
12b-
12b-
12a-
12g
12g
12f#
=145
8g
8a
8b-
8b
8cc
8dd
8ee-
8gg
=146
8gg
8ff
8ee-
8dd
8dd
8cc
8b-
8a
=147
*tuplet
12r
12ff
*Xtuplet
12ee-
12dd
12dd
12cc
12b-
12a
12a-
12g
12g
12f#
=148
8g
8a
8b-
8b
8cc
8dd
8ee-
8ff
=149
8gg
8aa
8bb-
8aa
8bb-
8aa
8bb-
8aa
=150
8bb-
8ccc
8ddd
8ccc#
8ddd
8ccc#
8ddd
8ccc#
=151
8ddd
8bb-
8ff
8dd
2cc
=152
4b-
2.aa-
=153
4gg
2.aa
=154
4bb-
2.a-
=155
4g
2.a
=156
8r
8b-
8b-
8b
8r
8b
8b
8cc
=157
8r
8cc#
8cc#
8dd
8r
8dd
8dd
8ee-
=158
8r
8ee
8ee
8ff
4ff
4gg
=159
8ff
8ee-
8dd
8cc
4ee-
4ff
=160
8ee-
8dd
8cc
8b-
4ff
4bb-
=161
8aa
8gg
8gg
8ff
8ff
8ee-
8ee-
8dd
=162
4dd
4cc
8ff
8ee
8ff
8gg
=163
8ff
8ee-
8dd
8cc
8ee-
8dd
8ee-
8ff
=164
8ee-
8dd
8cc
8b-
8b-
8dd
8ff
8bb-
=165
8bb-
8gg
8ee-
8cc
2cc
=166
4b-
4b-
4cc
4a
=167
4b-
4d
4e-
4e
=168
4f
12dd
12ee-
12ff
12ee-
12ff
12gg
12cc
12dd
12ee-
=169
12dd
12ee-
12ff
12gg
12aa
12bb-
12aa
12gg
12ff
12ee-
12dd
12cc
=170
4b-
2.b-[
=171
4b-]
12ee-
12ff
12gg
12ff
12ee-
12dd
12cc
12b-
12a
=172
4b-
2.b-[
=173
4b-]
12ee-
12ff
12gg
12ff
12ee-
12dd
12cc
12b-
12a
=174
4b-
12ee-
12cc
12a
4b-
12ee-
12cc
12a
=175
4b-
4ff
4bb-
12ee-
12cc
12a
=176
4b-
4ff
4bb-
12ee-
12cc
12a
=177
4b-
4ff
4bb-
4f
=178
4b-
4r
==
*-
